actions/22x22-dark/layer-raise.svg

<svg viewBox="0 0 22 22" xmlns="http://www.w3.org/2000/svg"><path d="m11 3-8.4335938 4.2167969 8.4335938 4.2167971 8.433594-4.2167971zm-6.0839844 10.607422-2.3496094 1.175781 8.4335938 4.216797 8.433594-4.216797-2.34961-1.175781-6.083984 3.041016z" fill="#f2f2f2"/><path d="m4.9160156 9.8027344-2.3496094 1.1757816 8.4335938 4.216796 8.433594-4.216796-2.34961-1.1757816-6.083984 3.0410156z" fill="#3daee9"/></svg>

<svg xmlns="http://www.w3.org/2000/svg" viewBox="0 0 22 22">
  <defs id="defs3051">
    <style type="text/css" id="current-color-scheme">
      .ColorScheme-Text {
        color:#f2f2f2;
      }
      .ColorScheme-Highlight {
        color:#3daee9;
      }
      </style>
  </defs>
 <path 
     style="fill:currentColor;fill-opacity:1;stroke:none" 
     d="M 11 3 L 2.5664062 7.2167969 L 11 11.433594 L 19.433594 7.2167969 L 11 3 z M 4.9160156 13.607422 L 2.5664062 14.783203 L 11 19 L 19.433594 14.783203 L 17.083984 13.607422 L 11 16.648438 L 4.9160156 13.607422 z "
     class="ColorScheme-Text"
     />
 <path 
     style="fill:currentColor;fill-opacity:1;stroke:none" 
     d="M 4.9160156 9.8027344 L 2.5664062 10.978516 L 11 15.195312 L 19.433594 10.978516 L 17.083984 9.8027344 L 11 12.84375 L 4.9160156 9.8027344 z "
     class="ColorScheme-Highlight"
     />
</svg>
